X: 12596
T: Farewell To The Taliban
R: reel
M: 4/4
K: Eminor
|:BEEG FEFG|FEFG FEDE|BEEG FEFG|ABAG FED2|
BEEG FEFG|FEFG FEDE|BEEG FEFG|ABAG FED2:|
|:B2EB AG~A2|B2EB AGFG|BEEB AGAB|cBAG FED2|
B2EB AG~A2|B2EB AGFG|BEEB AGAB|cBAG FED2:|

